svgs/duotone/tv-retro.svg

<svg xmlns="http://www.w3.org/2000/svg" viewBox="0 0 512 512"><!-- Font Awesome Pro 6.0.0-alpha2 by @fontawesome - https://fontawesome.com License - https://fontawesome.com/license (Commercial License) --><defs><style>.fa-secondary{opacity:.4}</style></defs><path d="M448 96H322.031L377.063 40.969C386.438 31.594 386.438 16.406 377.063 7.031S352.5 -2.344 343.125 7.031L256.094 94.062L169.062 7.031C159.687 -2.344 144.5 -2.344 135.125 7.031S125.75 31.594 135.125 40.969L190.156 96H64C28.654 96 0 124.654 0 160V448C0 483.346 28.654 512 64 512H448C483.346 512 512 483.346 512 448V160C512 124.654 483.346 96 448 96ZM384.094 384C384.094 419.346 355.439 448 320.094 448H128.094C92.748 448 64.094 419.346 64.094 384V224C64.094 188.652 92.748 160 128.094 160H320.094C355.439 160 384.094 188.652 384.094 224V384ZM448.094 336C434.84 336 424.094 325.254 424.094 312C424.094 298.742 434.84 288 448.094 288S472.094 298.742 472.094 312C472.094 325.254 461.348 336 448.094 336ZM448.094 256C434.84 256 424.094 245.254 424.094 232C424.094 218.742 434.84 208 448.094 208S472.094 218.742 472.094 232C472.094 245.254 461.348 256 448.094 256Z" class="fa-secondary"/><path d="M384 224V384C384 419.346 355.346 448 320 448H128C92.654 448 64 419.346 64 384V224C64 188.652 92.654 160 128 160H320C355.346 160 384 188.652 384 224Z" class="fa-primary"/></svg>

<svg xmlns="http://www.w3.org/2000/svg" viewBox="0 0 512 512"><!--! Font Awesome Pro 6.3.0 by @fontawesome - https://fontawesome.com License - https://fontawesome.com/license (Commercial License) Copyright 2023 Fonticons, Inc. --><defs><style>.fa-secondary{opacity:.4}</style></defs><path class="fa-primary" d="M384.1 224v160c0 35.35-28.67 64-64.01 64L128.1 448c-35.35 0-64-28.65-64-64V224c0-35.35 28.65-64 64-64l191.1 .0011C355.4 160 384.1 188.7 384.1 224z"/><path class="fa-secondary" d="M448 96L322 96l55.03-55.03c9.375-9.375 9.375-24.56 0-33.94s-24.56-9.375-33.94 0l-87.05 86.95L169 7.031c-9.375-9.375-24.56-9.375-33.94 0s-9.375 24.56 0 33.94L190.1 96L64 96c-35.35 0-64 28.65-64 63.1v287.1C0 483.3 28.65 512 64 512h384c35.35 0 64-28.65 64-63.1V160C512 124.7 483.3 96 448 96zM384.1 384c0 35.35-28.67 64-64.01 64L128.1 448c-35.35 0-64-28.65-64-64V224c0-35.35 28.65-64 64-64l191.1 .0011c35.35 0 64.01 28.65 64.01 63.1V384zM448.1 336c-13.25 0-24-10.75-24-24c0-13.26 10.75-24 24-24s24 10.74 24 24C472.1 325.3 461.3 336 448.1 336zM448.1 256c-13.25 0-24-10.75-24-24c0-13.26 10.71-23.1 23.97-23.1S472.1 218.7 472.1 232C472.1 245.3 461.3 256 448.1 256z"/></svg>
